packages/core/src/svgs/atm.svg

<svg width="24" height="24" viewBox="0 0 24 24" fill="none" xmlns="http://www.w3.org/2000/svg">
<g clip-path="url(#clip0_31_6317)">
<path d="M0 0H24V24H0V0Z" fill="#F0F3FA"/>
<path d="M6.54423 15.7031L11.9999 19.8774L17.4557 15.7031C17.6657 15.5445 17.7857 15.296 17.7857 15.0388V5.33167C17.3571 4.70167 15.0428 4.06738 11.9999 4.06738C8.7428 4.06738 6.6428 4.70167 6.21423 5.33167V15.0431C6.21423 15.3002 6.33423 15.5488 6.54423 15.7074V15.7031Z" fill="#2C305F"/>
<path d="M9.42852 18.0986L7.71423 16.7743V14.2029L9.41566 12.9172H9.42852V18.1029V18.0986ZM12.8571 19.4272L11.9999 20.0872L11.1428 19.4229V11.6186L12.8571 10.3243V19.4229V19.4272ZM16.2857 16.7743L14.5714 18.1029V9.02573L16.2857 7.73145V16.7743Z" fill="white"/>
<path d="M12.8572 10.3242L14.5714 9.02995V18.0985L12.8572 19.4271V10.3199V10.3242ZM9.42859 12.9128L11.1429 11.6185V19.4228L9.42859 18.0985V12.9128ZM6.42859 15.1757L7.7143 14.2028V16.7742L6.42859 15.7799V15.1757ZM16.2857 16.7742V7.73566L17.5714 6.76709V15.7799L16.2857 16.7742Z" fill="#CB3522"/>
<path d="M6.42857 5.39979V15.0426C6.42857 15.2355 6.51857 15.4198 6.67714 15.5398L12 19.6069L17.3229 15.5355C17.4814 15.4155 17.5714 15.2355 17.5714 15.0384V5.39979C17.4857 5.30122 17.3143 5.18122 17.04 5.05693C16.7314 4.91551 16.32 4.77836 15.8229 4.66265C14.8286 4.43122 13.5086 4.27693 12 4.27693C10.3843 4.27693 9.06429 4.43122 8.1 4.66265C7.61571 4.77836 7.22571 4.91551 6.93429 5.05265C6.67714 5.17693 6.51857 5.29693 6.42857 5.39551V5.39979ZM7.99714 4.25979C9 4.0155 10.3586 3.85693 12 3.85693C13.5343 3.85693 14.8929 4.0155 15.9214 4.25979C16.4357 4.37979 16.8771 4.51693 17.22 4.67551C17.5543 4.82979 17.82 5.00551 17.9657 5.21551L18 5.26693V15.0384C18 15.3641 17.8457 15.6684 17.5843 15.8698L12 20.1426L6.41571 15.8698C6.28701 15.7726 6.18251 15.647 6.11039 15.5028C6.03828 15.3586 6.0005 15.1996 6 15.0384V5.26693L6.03429 5.21551C6.17571 5.00979 6.42857 4.82979 6.74571 4.67979C7.07143 4.52122 7.49143 4.37979 7.99714 4.25979Z" fill="#2C305F"/>
<path d="M11.8714 4.47412L12.0128 4.91126H12.4842L12.1028 5.18126L12.2485 5.61841L11.8714 5.34841L11.4942 5.61841L11.6357 5.18126L11.2585 4.91126H11.7257L11.8714 4.47412ZM16.7442 5.12126L16.8899 5.55841H17.3571L16.9799 5.82841L17.1257 6.26555L16.7442 5.99555L16.3671 6.26555L16.5128 5.82841L16.1357 5.55841H16.6028L16.7442 5.12126ZM13.6842 7.98412L13.8257 8.42126H14.2971L13.9157 8.69126L14.0614 9.12841L13.6842 8.85412L13.3028 9.12841L13.4485 8.69126L13.0714 8.42126H13.5385L13.6842 7.98412ZM10.2728 10.3755L10.4185 10.8127H10.8857L10.5085 11.0827L10.6499 11.5198L10.2728 11.2498L9.89566 11.5198L10.0414 11.0827L9.65995 10.8127H10.1314L10.2728 10.3755ZM6.84423 12.9084L6.98995 13.3456H7.45709L7.07995 13.6156L7.22138 14.0527L6.84423 13.7827L6.46709 14.0527L6.6128 13.6156L6.23138 13.3456H6.7028L6.84423 12.9084ZM6.84423 8.69126L6.98995 9.12841H7.45709L7.07995 9.39841L7.22138 9.83555L6.84423 9.56555L6.46709 9.83555L6.6128 9.39841L6.23138 9.12841H6.7028L6.84423 8.69126ZM6.82709 5.31841L6.96852 5.75555H7.43995L7.05852 6.02555L7.20423 6.46269L6.82709 6.19269L6.44566 6.46269L6.59138 6.02555L6.21423 5.75555H6.68138L6.82709 5.31841ZM7.71423 6.17555V11.867L8.1428 11.537V10.6027C8.1428 10.5084 8.09995 10.4227 8.03995 10.3541C7.95423 10.2513 7.9328 10.0884 8.01852 9.98555C8.28478 9.65591 8.47371 9.27074 8.57138 8.85841C8.6828 8.38269 8.71709 7.87269 8.57138 7.44412C8.46423 7.11841 8.78566 7.22984 8.78566 7.22984C8.85852 7.15698 8.99995 7.01555 9.21423 7.01555L9.6428 6.80984C9.71566 6.87841 9.78852 7.04126 9.60423 7.40555C9.4328 7.73984 9.66423 7.97555 9.85709 8.07412C10.0071 8.14698 10.3157 7.71841 10.4442 7.52555L10.4571 7.50412C10.4828 7.46984 10.4999 7.43555 10.5385 7.40555C10.6071 7.34126 10.7014 7.27269 10.8428 7.27269C10.7142 7.98841 10.3714 9.12841 9.85709 9.12841H10.0714C10.0714 9.33841 9.9428 10.0541 9.42852 10.3927V10.5555L11.5714 8.91412V7.01984C11.1428 7.08841 10.2428 7.10555 10.0714 6.59555C9.78423 6.66841 8.99995 6.80984 8.78566 5.96555L7.71423 6.17555ZM15.4285 5.96555L12.4285 8.27984V6.81412C12.9428 7.14841 13.4999 6.81412 13.4999 6.59984C14.1857 6.77126 14.6442 6.24841 14.7857 5.96984H15.4285V5.96555Z" fill="#F0F3FA"/>
</g>
<defs>
<clipPath id="clip0_31_6317">
<rect width="24" height="24" fill="white"/>
</clipPath>
</defs>
</svg>

<svg xmlns="http://www.w3.org/2000/svg" width="24" height="24" fill="none" viewBox="0 0 24 24"><g clip-path="url(#a)"><path fill="#F0F3FA" d="M0 0h24v24H0z"/><path fill="#2C305F" d="M6.544 15.703 12 19.877l5.456-4.174a.83.83 0 0 0 .33-.664V5.332c-.429-.63-2.743-1.265-5.786-1.265-3.257 0-5.357.635-5.786 1.265v9.711c0 .257.12.506.33.664z"/><path fill="#fff" d="m9.429 18.099-1.715-1.325v-2.571l1.702-1.286h.013v5.186zm3.428 1.328-.857.66-.857-.664v-7.804l1.714-1.295v9.103m3.429-2.653-1.715 1.329V9.026l1.715-1.295z"/><path fill="#CB3522" d="m12.857 10.324 1.714-1.294v9.069l-1.714 1.328V10.32zM9.43 12.913l1.714-1.295v7.805l-1.714-1.324zm-3 2.263 1.285-.973v2.571L6.43 15.78zm9.857 1.598V7.736l1.285-.969v9.013z"/><path fill="#2C305F" d="M6.429 5.4v9.643c0 .193.09.377.248.497L12 19.607l5.323-4.071c.158-.12.248-.3.248-.498V5.4c-.085-.099-.257-.219-.531-.343a6.6 6.6 0 0 0-1.217-.394c-.994-.232-2.314-.386-3.823-.386-1.616 0-2.936.154-3.9.386a6 6 0 0 0-1.166.39c-.257.124-.415.244-.505.343zm1.568-1.14C9 4.016 10.36 3.857 12 3.857c1.534 0 2.893.159 3.921.403.515.12.956.257 1.299.416.334.154.6.33.746.54l.034.05v9.772c0 .326-.154.63-.416.832L12 20.143 6.416 15.87A1.05 1.05 0 0 1 6 15.038V5.267l.034-.051c.142-.206.395-.386.712-.536.325-.159.745-.3 1.251-.42"/><path fill="#F0F3FA" d="m11.871 4.474.142.437h.471l-.381.27.146.437-.378-.27-.377.27.142-.437-.377-.27h.467zm4.873.647.146.437h.467l-.377.27.146.438-.382-.27-.377.27.146-.438-.377-.27h.467zm-3.06 2.863.142.437h.471l-.381.27.145.437-.377-.274-.381.274.145-.437-.377-.27h.468zm-3.411 2.392.146.437h.467l-.377.27.14.437-.376-.27-.377.27.145-.437-.381-.27h.471zm-3.429 2.532.146.438h.467l-.377.27.141.437-.377-.27-.377.27.146-.437-.382-.27h.472zm0-4.217.146.437h.467l-.377.27.141.438-.377-.27-.377.27.146-.438-.382-.27h.472zm-.017-3.373.142.438h.47l-.38.27.145.437-.377-.27-.381.27.145-.437-.377-.27h.467zm.887.858v5.691l.429-.33v-.934a.38.38 0 0 0-.103-.249c-.086-.103-.107-.266-.021-.368.266-.33.455-.715.552-1.128.112-.475.146-.985 0-1.414-.107-.326.215-.214.215-.214.073-.073.214-.214.428-.214l.429-.206c.073.068.146.231-.039.596-.171.334.06.57.253.668.15.073.459-.356.587-.548l.013-.022c.026-.034.043-.068.082-.098a.43.43 0 0 1 .304-.133c-.129.715-.472 1.855-.986 1.855h.214c0 .21-.128.926-.642 1.265v.162l2.142-1.64V7.02c-.428.068-1.328.086-1.5-.424-.287.072-1.071.214-1.285-.63zm7.714-.21-3 2.314V6.814c.515.334 1.072 0 1.072-.214.686.171 1.144-.352 1.286-.63h.643z"/></g><defs><clipPath id="a"><path fill="#fff" d="M0 0h24v24H0z"/></clipPath></defs></svg>
